X:65
T: ES DUNKELT IN DEM WALDE
N: E0679E
O: Europa, Mitteleuropa, Deutschland, Westfalen; Frankreich, Elsass
R: Liebes - Lied, Leid, Klage
M: 2/4
L: 1/16
K: F
C2 | F2C2F2G2 | A6B2 | c3BA2
c2 | f2c2B2A2 | G4z2
c2 | d2c2d2e2 | f2edc2
B2 | A2A2cBG2 | F4z2

